icons/numix/16x16/mimetypes/text-x-gtkrc.svg

<?xml version="1.0" encoding="UTF-8" standalone="no"?>
<svg
   xmlns:dc="http://purl.org/dc/elements/1.1/"
   xmlns:cc="http://creativecommons.org/ns#"
   xmlns:rdf="http://www.w3.org/1999/02/22-rdf-syntax-ns#"
   xmlns:svg="http://www.w3.org/2000/svg"
   xmlns="http://www.w3.org/2000/svg"
   xmlns:sodipodi="http://sodipodi.sourceforge.net/DTD/sodipodi-0.dtd"
   xmlns:inkscape="http://www.inkscape.org/namespaces/inkscape"
   width="16"
   height="16"
   viewBox="0 0 16 16"
   id="svg2"
   version="1.1"
   inkscape:version="0.48.5 r10040"
   sodipodi:docname="text-x-gtkrc.svg">
  <metadata
     id="metadata24">
    <rdf:RDF>
      <cc:Work
         rdf:about="">
        <dc:format>image/svg+xml</dc:format>
        <dc:type
           rdf:resource="http://purl.org/dc/dcmitype/StillImage" />
      </cc:Work>
    </rdf:RDF>
  </metadata>
  <defs
     id="defs22" />
  <sodipodi:namedview
     pagecolor="#ffffff"
     bordercolor="#666666"
     borderopacity="1"
     objecttolerance="10"
     gridtolerance="10"
     guidetolerance="10"
     inkscape:pageopacity="0"
     inkscape:pageshadow="2"
     inkscape:window-width="1280"
     inkscape:window-height="970"
     id="namedview20"
     showgrid="true"
     inkscape:zoom="20.85965"
     inkscape:cx="13.212645"
     inkscape:cy="8.7968964"
     inkscape:window-x="0"
     inkscape:window-y="0"
     inkscape:window-maximized="1"
     inkscape:current-layer="svg2">
    <inkscape:grid
       type="xygrid"
       id="grid3012" />
  </sodipodi:namedview>
  <path
     style="fill:#dc322f;fill-opacity:1"
     d="M 2.667969,-4.455e-4 C 2.324219,-4.455e-4 2,0.3378125 2,0.6964472 L 2,15.303108 C 2,15.641365 2.34375,16 2.667969,16 l 10.664062,0 C 13.65625,16 14,15.641365 14,15.303108 L 14,3.9995543 10,-4.455e-4 z"
     id="path4-4"
     inkscape:connector-curvature="0"
     sodipodi:nodetypes="ssssssccs" />
  <path
     style="fill:#000000;fill-opacity:0.19599998"
     d="m 10.583223,3.3315853 0.0154,0.01953 0.04005,-0.01953 z m 0.02978,0.667969 3.387,3.664062 0,-3.664062 z"
     id="path6"
     inkscape:connector-curvature="0"
     sodipodi:nodetypes="cccccccc" />
  <g
     style="fill:#ffffff"
     id="g10"
     transform="matrix(1.3350716,0,0,1.3350716,-2.6805728,-3.0156444)">
    <path
       d="m 10.667969,6.332031 0,-0.332031 -5.335938,0 0,0.332031 L 5,6.332031 5,8 l 0.332031,0 0,0.332031 5.335938,0 L 10.667969,8 11,8 11,6.332031 z m -5.335938,0 3.335938,0 0,1.667969 -3.335938,0 z m 4,0.335938 1,0 0,0.664062 -0.332031,0 0,0.335938 -0.332031,0 0,-0.335938 -0.335938,0 z"
       id="path12"
       inkscape:connector-curvature="0" />
    <path
       d="m 5.332031,9.332031 0,0.335938 -0.332031,0 0,2 0.332031,0 0,0.332031 2,0 0,-0.332031 0.335938,0 0,-2 -0.335938,0 0,-0.335938 z M 7,10 l 0.332031,0 0,0.332031 L 7,10.320312 l 0,0.347657 -0.332031,0 0,0.332031 -0.335938,0 0,0.332031 L 6,11.332031 6,11 l -0.332031,0 0,-0.332031 0.332031,0 L 6,11 l 0.332031,0 0,-0.332031 0.335938,0 0,-0.335938 0.332031,0 z"
       id="path14"
       inkscape:connector-curvature="0" />
    <path
       d="m 8.996094,9.332031 0,0.335938 1.332031,0 0,-0.335938 z m 1.332031,0.335938 0,0.332031 0.332031,0 0,-0.332031 z M 10.660156,10 l 0,1.332031 0.335938,0 0,-1.332031 z m 0,1.332031 -0.332031,0 0,0.335938 0.332031,0 z m -0.332031,0.335938 -1.332031,0 0,0.332031 1.332031,0 z m -1.332031,0 0,-0.335938 -0.335938,0 0,0.335938 z m -0.335938,-0.335938 0,-1.332031 -0.332031,0 0,1.332031 z m 0,-1.332031 0.335938,0 0,-0.332031 -0.335938,0 z"
       id="path16"
       inkscape:connector-curvature="0" />
    <path
       d="m 9.328125,11 -0.332031,0 0,-0.667969 0.332031,0 0,-0.332031 0.667969,0 0,0.332031 0.332031,0 0,0.667969 -0.332031,0 0,0.332031 -0.667969,0 z"
       id="path18"
       inkscape:connector-curvature="0" />
  </g>
  <path
     style="fill:#ffffff;fill-opacity:0.39200003"
     d="m 10,-4.455e-4 3.996396,3.9999998 -3.383784,0 C 10.313513,3.9995543 10,3.6824373 10,3.3833383 z"
     id="path8"
     inkscape:connector-curvature="0"
     sodipodi:nodetypes="ccssc" />
</svg>

<svg width="16" xmlns="http://www.w3.org/2000/svg" height="16" viewBox="0 0 16 16" xmlns:xlink="http://www.w3.org/1999/xlink">
<path style="fill:#dc322f" d="M 2.667969 0.332031 C 2.324219 0.332031 2 0.65625 2 1 L 2 15 C 2 15.324219 2.34375 15.667969 2.667969 15.667969 L 13.332031 15.667969 C 13.65625 15.667969 14 15.324219 14 15 L 14 4.667969 L 9.667969 0.332031 Z "/>
<path style="fill:#000;fill-opacity:.196" d="M 9.667969 4 L 9.6875 4.019531 L 9.738281 4 Z M 10.332031 4.667969 L 14 8.332031 L 14 4.667969 Z "/>
<path style="fill:#fff;fill-opacity:.392" d="M 9.667969 0.332031 L 14 4.667969 L 10.332031 4.667969 C 10.007812 4.667969 9.667969 4.324219 9.667969 4 Z "/>
<g style="fill:#fff">
<path d="M 10.667969 6.332031 L 10.667969 6 L 5.332031 6 L 5.332031 6.332031 L 5 6.332031 L 5 8 L 5.332031 8 L 5.332031 8.332031 L 10.667969 8.332031 L 10.667969 8 L 11 8 L 11 6.332031 Z M 5.332031 6.332031 L 8.667969 6.332031 L 8.667969 8 L 5.332031 8 Z M 9.332031 6.667969 L 10.332031 6.667969 L 10.332031 7.332031 L 10 7.332031 L 10 7.667969 L 9.667969 7.667969 L 9.667969 7.332031 L 9.332031 7.332031 Z "/>
<path d="M 5.332031 9.332031 L 5.332031 9.667969 L 5 9.667969 L 5 11.667969 L 5.332031 11.667969 L 5.332031 12 L 7.332031 12 L 7.332031 11.667969 L 7.667969 11.667969 L 7.667969 9.667969 L 7.332031 9.667969 L 7.332031 9.332031 Z M 7 10 L 7.332031 10 L 7.332031 10.332031 L 7 10.320312 L 7 10.667969 L 6.667969 10.667969 L 6.667969 11 L 6.332031 11 L 6.332031 11.332031 L 6 11.332031 L 6 11 L 5.667969 11 L 5.667969 10.667969 L 6 10.667969 L 6 11 L 6.332031 11 L 6.332031 10.667969 L 6.667969 10.667969 L 6.667969 10.332031 L 7 10.332031 Z "/>
<path d="M 8.996094 9.332031 L 8.996094 9.667969 L 10.328125 9.667969 L 10.328125 9.332031 Z M 10.328125 9.667969 L 10.328125 10 L 10.660156 10 L 10.660156 9.667969 Z M 10.660156 10 L 10.660156 11.332031 L 10.996094 11.332031 L 10.996094 10 Z M 10.660156 11.332031 L 10.328125 11.332031 L 10.328125 11.667969 L 10.660156 11.667969 Z M 10.328125 11.667969 L 8.996094 11.667969 L 8.996094 12 L 10.328125 12 Z M 8.996094 11.667969 L 8.996094 11.332031 L 8.660156 11.332031 L 8.660156 11.667969 Z M 8.660156 11.332031 L 8.660156 10 L 8.328125 10 L 8.328125 11.332031 Z M 8.660156 10 L 8.996094 10 L 8.996094 9.667969 L 8.660156 9.667969 Z "/>
<path d="M 9.328125 11 L 8.996094 11 L 8.996094 10.332031 L 9.328125 10.332031 L 9.328125 10 L 9.996094 10 L 9.996094 10.332031 L 10.328125 10.332031 L 10.328125 11 L 9.996094 11 L 9.996094 11.332031 L 9.328125 11.332031 Z "/>
</g>
</svg>
